X:285
T:Lost Indian
C:Traditional
N:Transcribed by Larry Tanner
R:bluegrass
L:1/8
Q:1/4=220
M:4/4
K:D
z6 A,B, |: "D"D2 DF ED B,C | DE DB, A,2 A,B, | D2 DE FG Ad | "Bm"BB Bd B2 AB | 
"D"dB Ad BA FG | AB AG FE DE | "A"FE DF ED B,C |1 D2 DE D2 A,B, :|2 D2 DD D2 ag | 
|: "D"fe fg a2 f2 | ab ag fe d2 | de fg ae fa | "Bm"[bd][bd] [bd][bd] [b4d4] | 
"D"d'b ad' ba fg | ab ag fe de |1 f"A"e df ed AB | "D"dd de d2 ag :|2 e2 [f2A2] [=f2^G2] [e2=G2] | 
"D"[d4F4] [d4F4] | 


